packages/nodes-base/nodes/Splunk/splunk.svg

<svg width="200" height="136" viewBox="2 25 102 16" fill="none" xmlns="http://www.w3.org/2000/svg">
<path d="M12.9281 21.8019C12.9281 22.6038 12.7585 23.3491 12.4193 24.0377C12.0801 24.717 11.5995 25.3019 10.9964 25.7736C10.3839 26.2547 9.65838 26.6226 8.81975 26.8868C7.98112 27.1509 7.05769 27.283 6.05887 27.283C4.86218 27.283 3.78798 27.1226 2.8457 26.7925C1.90342 26.4717 0.951704 25.9245 0 25.1698L1.57362 22.6132C2.32744 23.2453 3.00588 23.7076 3.61836 24C4.22142 24.2925 4.84333 24.434 5.48408 24.434C6.26618 24.434 6.88808 24.2358 7.36865 23.8302C7.84921 23.4245 8.07536 22.8868 8.07536 22.1981C8.07536 21.9057 8.02824 21.6321 7.94344 21.3774C7.85863 21.1226 7.69844 20.8585 7.4723 20.5849C7.24615 20.3208 6.92578 20.0189 6.52059 19.7076C6.12484 19.3962 5.60658 19 4.96583 18.5377C4.48527 18.1981 4.00469 17.8396 3.54298 17.4811C3.08126 17.1132 2.66666 16.7264 2.28033 16.3113C1.90342 15.8962 1.60188 15.434 1.36631 14.9151C1.14016 14.4057 1.01767 13.8113 1.01767 13.1604C1.01767 12.4057 1.17786 11.7075 1.48881 11.0849C1.79976 10.4623 2.23321 9.93396 2.77973 9.49056C3.32625 9.04717 3.97643 8.70754 4.7491 8.46226C5.51235 8.21698 6.34156 8.09435 7.24615 8.09435C8.19785 8.09435 9.11186 8.21699 9.9976 8.4717C10.8833 8.72642 11.7031 9.09434 12.4664 9.5849L11.0435 11.8868C10.073 11.2075 9.0459 10.8585 7.9717 10.8585C7.32152 10.8585 6.77501 11.0283 6.35098 11.3679C5.92695 11.7075 5.71022 12.1321 5.71022 12.6509C5.71022 13.1415 5.89868 13.5849 6.27559 13.9717C6.6525 14.3679 7.30269 14.9057 8.22612 15.6226C9.15898 16.3019 9.93165 16.9057 10.5347 17.4151C11.1472 17.9245 11.6278 18.4151 11.9858 18.8679C12.3439 19.3208 12.5795 19.7736 12.7208 20.2453C12.8621 20.7264 12.9281 21.2358 12.9281 21.8019ZM29.0882 17.4906C29.0882 18.1981 29.0128 18.9623 28.8621 19.783C28.7207 20.6038 28.4663 21.3585 28.1083 22.0566C27.7502 22.7547 27.2885 23.3302 26.7137 23.7736C26.1389 24.2264 25.4039 24.4528 24.5276 24.4528C23.0576 24.4528 21.8986 23.8679 21.0506 22.6887C20.2025 21.5189 19.7785 19.9057 19.7785 17.8585C19.7785 15.7547 20.2025 14.0943 21.0694 12.8585C21.9269 11.6226 23.0953 11.0094 24.5653 11.0094C25.9599 11.0094 27.0623 11.5943 27.8727 12.7453C28.6831 13.9057 29.0882 15.4906 29.0882 17.4906ZM34.1954 17.3113C34.1954 15.9434 33.9975 14.6981 33.6112 13.5849C33.2154 12.4623 32.6689 11.5 31.9433 10.6887C31.2178 9.87736 30.3697 9.25472 29.3803 8.80189C28.3909 8.34906 27.2979 8.12264 26.1012 8.12264C24.782 8.12264 23.623 8.37736 22.6242 8.86793C21.6254 9.36793 20.6925 10.1509 19.8444 11.2264L19.8162 8.5566H15.1142V36H19.8068V24.4057C20.2685 24.9434 20.7113 25.3962 21.1448 25.7642C21.5688 26.1321 22.0023 26.434 22.4452 26.6604C22.888 26.8868 23.3497 27.0566 23.8397 27.151C24.3297 27.2453 24.8574 27.2925 25.4133 27.2925C26.6571 27.2925 27.8256 27.0377 28.8998 26.5472C29.974 26.0472 30.9068 25.3491 31.6889 24.4434C32.471 23.5377 33.0835 22.4811 33.5264 21.283C33.9787 20.0755 34.1954 18.7453 34.1954 17.3113ZM36.2873 26.8491H41.1117V0H36.2873V26.8491ZM61.6912 26.8585V8.53774H56.8667V18.3962C56.8667 19.2736 56.829 19.9528 56.7536 20.434C56.6782 20.9151 56.5557 21.3396 56.3861 21.7359C55.7077 23.2453 54.4544 24.0094 52.6358 24.0094C51.213 24.0094 50.2236 23.5 49.6582 22.4717C49.4321 22.0849 49.2813 21.6415 49.1965 21.1509C49.1117 20.6604 49.0646 19.9528 49.0646 19.0189V8.53774H44.2401V18.9434C44.2401 19.6509 44.2495 20.2547 44.259 20.7359C44.2684 21.217 44.3061 21.6604 44.3532 22.0377C44.4003 22.4151 44.4568 22.7547 44.5228 23.0472C44.5793 23.3396 44.6736 23.6226 44.7961 23.8868C45.2389 25.0094 45.9456 25.8585 46.935 26.434C47.9244 27.0094 49.14 27.2925 50.5723 27.2925C51.8632 27.2925 53.0033 27.066 53.9833 26.6132C54.9633 26.1604 55.915 25.4245 56.8384 24.3962L56.8478 26.8491L61.6912 26.8585ZM82.4779 26.8491V16.4623C82.4779 15.7547 82.4685 15.1509 82.459 14.6509C82.4496 14.1509 82.4214 13.717 82.3648 13.3491C82.3177 12.9811 82.2518 12.6604 82.1858 12.3868C82.1104 12.1038 82.0256 11.8302 81.9314 11.566C81.4885 10.4717 80.7818 9.62264 79.7924 9.0283C78.803 8.43396 77.5874 8.13207 76.1458 8.13207C74.8548 8.13207 73.7147 8.35849 72.7347 8.81132C71.7547 9.26415 70.803 10.0094 69.8796 11.0283L69.8702 8.57547H65.0174V26.8585H69.8796V16.9906C69.8796 16.1415 69.9079 15.4717 69.9738 15C70.0303 14.5283 70.1529 14.0849 70.3225 13.6604C70.6334 12.9245 71.1234 12.3774 71.7736 12C72.4238 11.6226 73.1964 11.434 74.101 11.434C75.5239 11.434 76.5133 11.9434 77.0786 12.9717C77.2954 13.3585 77.4461 13.8019 77.5309 14.283C77.6157 14.7642 77.6628 15.4811 77.6628 16.4057V26.8396L82.4779 26.8491ZM102.435 25.6415L95.0856 16.5L101.295 9.83963L97.6392 8.26415L91.1751 15.7641H90.6663V0H85.8041V26.8491H90.6663V17.1226L97.9407 27.217L102.435 25.6415ZM121.225 19.0755V16.0849L106.61 8.74528V12.0377L117.936 17.5566L106.61 23.1509V26.3679L121.225 19.0755ZM108.023 4C107.128 4 106.402 4.73585 106.402 5.64151C106.402 6.56604 107.128 7.29246 108.023 7.29246C108.928 7.29246 109.644 6.56604 109.644 5.64151C109.644 4.72642 108.928 4 108.023 4ZM108.033 4.25471C108.758 4.25471 109.342 4.87736 109.342 5.65095C109.342 6.42453 108.758 7.04717 108.033 7.03773C107.298 7.03773 106.713 6.42453 106.713 5.64151C106.713 4.87736 107.298 4.25471 108.033 4.25471ZM107.722 5.81132H107.919C108.155 5.81132 108.268 5.89623 108.315 6.13208C108.353 6.37736 108.4 6.53774 108.438 6.59434H108.749C108.72 6.53774 108.673 6.42453 108.636 6.14151C108.598 5.86792 108.494 5.72642 108.325 5.69812V5.67924C108.523 5.62264 108.683 5.4717 108.683 5.23585C108.683 5.06604 108.626 4.93396 108.513 4.85849C108.4 4.77359 108.221 4.71698 107.948 4.71698C107.731 4.71698 107.58 4.73585 107.43 4.76415V6.59434H107.722V5.81132ZM107.722 4.96226C107.769 4.95283 107.835 4.9434 107.929 4.9434C108.259 4.9434 108.372 5.10378 108.372 5.26416C108.372 5.49057 108.164 5.57547 107.929 5.57547H107.722V4.96226Z" fill="#0C1724"/>
</svg>

<svg xmlns="http://www.w3.org/2000/svg" width="200" height="136" fill="none" viewBox="2 25 102 16"><path fill="#0C1724" d="M12.928 21.802a5 5 0 0 1-.509 2.236 5.1 5.1 0 0 1-1.423 1.736q-.918.718-2.176 1.113-1.26.396-2.761.396c-1.197 0-2.271-.16-3.213-.49C1.903 26.472.952 25.924 0 25.17l1.574-2.557q1.128.948 2.044 1.387a4.2 4.2 0 0 0 1.866.434c.782 0 1.404-.198 1.885-.604.48-.405.706-.943.706-1.632 0-.292-.047-.566-.132-.82-.084-.255-.245-.52-.47-.793a6.4 6.4 0 0 0-.952-.877 47 47 0 0 0-1.555-1.17c-.48-.34-.961-.698-1.423-1.057a11.5 11.5 0 0 1-1.263-1.17 5.3 5.3 0 0 1-.914-1.396 4.3 4.3 0 0 1-.348-1.755c0-.754.16-1.453.47-2.075A4.8 4.8 0 0 1 2.78 9.49c.546-.444 1.196-.783 1.97-1.029a8.1 8.1 0 0 1 2.496-.368 9.9 9.9 0 0 1 2.752.378 9.3 9.3 0 0 1 2.468 1.113l-1.422 2.302c-.971-.68-1.998-1.029-3.072-1.029-.65 0-1.197.17-1.621.51s-.64.764-.64 1.283c0 .49.188.934.565 1.32.377.397 1.027.935 1.95 1.652a42 42 0 0 1 2.309 1.792c.612.51 1.093 1 1.45 1.453.359.453.595.906.736 1.377.141.481.207.99.207 1.557m16.16-4.311q0 1.06-.226 2.292a7.9 7.9 0 0 1-.754 2.274c-.358.698-.82 1.273-1.394 1.717-.575.452-1.31.679-2.186.679-1.47 0-2.63-.585-3.477-1.764-.848-1.17-1.272-2.783-1.272-4.83 0-2.104.424-3.765 1.29-5 .858-1.236 2.026-1.85 3.496-1.85 1.395 0 2.497.585 3.308 1.736.81 1.16 1.215 2.746 1.215 4.746m5.107-.18c0-1.368-.197-2.613-.584-3.726-.396-1.123-.942-2.085-1.668-2.896a7.7 7.7 0 0 0-2.563-1.887q-1.484-.68-3.279-.68c-1.319 0-2.478.255-3.477.746-.999.5-1.931 1.283-2.78 2.358l-.028-2.67h-4.702V36h4.693V24.406c.462.537.904.99 1.338 1.358.424.368.857.67 1.3.896.443.227.905.397 1.395.491s1.017.142 1.573.142a8.3 8.3 0 0 0 3.487-.746 8.2 8.2 0 0 0 2.789-2.104 10.2 10.2 0 0 0 1.837-3.16c.453-1.207.67-2.538.67-3.972m2.092 9.538h4.825V0h-4.825zm25.404.01V8.537h-4.824v9.858q0 1.317-.113 2.038a5.4 5.4 0 0 1-.368 1.302c-.678 1.51-1.932 2.273-3.75 2.273-1.423 0-2.412-.509-2.978-1.537a3.9 3.9 0 0 1-.462-1.321c-.084-.49-.131-1.198-.131-2.132V8.538H44.24v10.405c0 .708.01 1.312.019 1.793a12.6 12.6 0 0 0 .264 2.311c.056.293.15.576.273.84.443 1.122 1.15 1.971 2.139 2.547.99.575 2.205.858 3.637.858 1.291 0 2.431-.226 3.411-.679s1.932-1.189 2.855-2.217l.01 2.453zm20.787-.01V16.462c0-.707-.01-1.311-.019-1.811-.01-.5-.038-.934-.094-1.302a9 9 0 0 0-.18-.962q-.113-.425-.254-.821c-.442-1.094-1.15-1.943-2.139-2.538s-2.205-.896-3.646-.896c-1.291 0-2.431.226-3.411.68-.98.452-1.932 1.197-2.855 2.216l-.01-2.453h-4.853V26.86h4.863v-9.87c0-.85.028-1.52.094-1.991.056-.472.179-.915.349-1.34a3.4 3.4 0 0 1 1.45-1.66c.65-.377 1.423-.566 2.328-.566 1.423 0 2.412.51 2.978 1.538.216.386.367.83.452 1.311s.132 1.198.132 2.123V26.84zm19.957-1.207-7.35-9.142 6.21-6.66-3.656-1.576-6.464 7.5h-.509V0h-4.862v26.85h4.862v-9.727l7.275 10.094zm18.79-6.566v-2.991l-14.615-7.34v3.293l11.326 5.519-11.326 5.594v3.217zM108.023 4c-.895 0-1.621.736-1.621 1.642 0 .924.726 1.65 1.621 1.65.905 0 1.621-.726 1.621-1.65A1.62 1.62 0 0 0 108.023 4m.01.255c.725 0 1.309.622 1.309 1.396s-.584 1.396-1.309 1.387c-.735 0-1.32-.613-1.32-1.396 0-.765.585-1.387 1.32-1.387m-.311 1.556h.197c.236 0 .349.085.396.321.038.245.085.406.123.462h.311c-.029-.056-.076-.17-.113-.452-.038-.274-.142-.416-.311-.444V5.68c.198-.056.358-.207.358-.443 0-.17-.057-.302-.17-.378-.113-.084-.292-.141-.565-.141a2.6 2.6 0 0 0-.518.047v1.83h.292zm0-.849a1 1 0 0 1 .207-.019c.33 0 .443.16.443.321 0 .227-.208.311-.443.311h-.207z"/></svg>
